X:1
T:Lead Me to Jesus
T:Lead Me to Jesus
T:Tullius Clinton O’Kane
T:Edmund Simon Lorenz, 1878
T:Public Domain Courtesy of the Cyber Hymnal™
T:Public Domain Courtesy of the Cyber Hymnal™
C:Tullius Clinton O’Kane
Z:Public Domain
Z:Courtesy of the Cyber Hymnal™
%%score ( 1 2 ) ( 3 4 )
L:1/8
Q:1/4=95
M:4/4
K:Ab
V:1 treble 
V:2 treble 
V:3 bass 
V:4 bass 
V:1
 [Ec]2 [Ec][Ec] [Ec]2 [EB][EA] | [FA]2 [EG][DF] [DF] [CE]2 z | [FA]2 [FA][FA] [FA]2 G[FA] | %3
w: 1.~Lead me to Je- sus, my|soul is so wea- ry,|Wea- ry of bear- ing the|
w: 2.~Mount- ains im- pas- sa- ble,|sins rise a- round me,|Hid- ing the light of the|
w: 3.~Lead me to Je- sus, my|soul now re- turn- ing,|Seeks in His bo- som its|
 [EB]2 [=DB]2 [EB]4 | [Ec]2 [Ec][Ec] [Ec]2 [EB][EA] | [FA]2 [EG][DF] [DF] [CE]2 z | %6
w: yoke of sin;|Dark clouds a- bove me, my|path- way is drea- ry,|
w: Fa- ther’s face;|Sit- ting in dark- ness, sin|fet- ters have bound me,|
w: rest- ing place;|Lead me to Je- sus, my|heart now is burn- ing,|
 [EA]2 [FA][FA] [EA]2 [EG][EA] | [GB]2 (AG) [EA]4 ||"^Refrain" [Ec]2 [Ec]>[Ec] [Fd]2 [Ec]2 | %9
w: Joy ne- ver dwells my sad|heart with- * in.||
w: Vain- ly I strug- gle with-|out His * grace.|Lead me to Je- sus,|
w: Long- ing for mer- cy, and|love, and * grace.||
 [Ae]2 [Ae]>[Ac] [GB]4 | [GB]2 [GB]>[GB] [Ec]2 [EB]2 | [=DB]2 [DA]>[DF] E4 | %12
w: |||
w: lead me to- day;|Lead me to Je- sus,|lead me, I pray;|
w: |||
 [CA]>[DG] [EA]2 [GB]>A [GB]2 | [Ec]>[=EB] [Fc]2 [Fd]>[Fd] !fermata![Fd]2 | [Ec]4 [Ec]2 [DB]2 | %15
w: |||
w: Ten- der- ly, care- ful- ly,|lov- ing- ly, prayer- ful- ly,|Lead me to|
w: |||
 [DB]4 [CA]4 |] %16
w: |
w: Je- sus.|
w: |
V:2
 x8 | x8 | x6 G x | x8 | x8 | x8 | x8 | x2 E2 x4 || x8 | x8 | x8 | x4 (E2 _D2) | x11/2 A/ x2 | x8 | %14
 x8 | x8 |] %16
V:3
 [A,,A,]2 [A,,A,][A,,A,] [A,,A,]2 [B,,D][C,C] | [D,A,]2 [D,A,][D,A,] [A,,A,] [A,,A,]2 z | %2
 [F,C]2 [F,C][F,C] [F,C]2 [E,E][E,B,] | [E,G,]2 [B,,A,]2 [E,G,]4 | %4
 [A,,A,]2 [A,,A,][A,,A,] [A,,A,]2 [B,,D][C,C] | [D,A,]2 [D,A,][D,A,] [A,,A,] [A,,A,]2 z | %6
 [A,,C]2 [D,D][D,D] [C,E]2 [B,,D][A,,C] | [E,D]2 (CB,) [A,,C]4 || A,2 A,>A, A,2 A,2 | %9
 [A,C]2 [A,C]>[A,E] [E,E]4 | [E,E]2 [E,D]>[E,B,] [E,A,]2 [E,G,]2 | %11
 [B,,F,]2 [B,,F,]>[B,,A,] [E,G,]4 | [A,,A,]>[A,,B,] [A,,C]2 [E,D]>[E,C] [E,D]2 | %13
 [A,E]>[G,C] [F,A,]2 [D,A,]>[D,A,] !fermata![D,A,]2 | [E,A,]4 [E,A,]2 [E,G,]2 | [E,G,]4 [A,,A,]4 |] %16
V:4
 x8 | x8 | x8 | x8 | x8 | x8 | x8 | x2 [E,,E,]2 x4 || A,2 A,>A, A,2 A,2 | x8 | x8 | x8 | x8 | x8 | %14
 x8 | x8 |] %16

